actions/64/mail-reply-all.svg

<?xml version="1.0" encoding="UTF-8" standalone="no"?>
<svg
   xmlns:dc="http://purl.org/dc/elements/1.1/"
   xmlns:cc="http://creativecommons.org/ns#"
   xmlns:rdf="http://www.w3.org/1999/02/22-rdf-syntax-ns#"
   xmlns:svg="http://www.w3.org/2000/svg"
   xmlns="http://www.w3.org/2000/svg"
   xmlns:xlink="http://www.w3.org/1999/xlink"
   id="svg4143"
   height="64"
   width="64"
   version="1.1">
  <defs
     id="defs4145">
    <linearGradient
       gradientTransform="matrix(-1.4940056,0,0,1.3886149,77.100586,0.03581468)"
       gradientUnits="userSpaceOnUse"
       xlink:href="#linearGradient2867-449-88-871-390-598-476-591-434-148-57-177-0"
       id="linearGradient3234"
       y2="42.03978"
       x2="23.731871"
       y1="4.4175272"
       x1="23.731871" />
    <linearGradient
       id="linearGradient2867-449-88-871-390-598-476-591-434-148-57-177-0">
      <stop
         offset="0"
         style="stop-color:#90dbec;stop-opacity:1"
         id="stop3750-4" />
      <stop
         offset="0.26238"
         style="stop-color:#55c1ec;stop-opacity:1"
         id="stop3752-4" />
      <stop
         offset="0.704952"
         style="stop-color:#3689e6;stop-opacity:1"
         id="stop3754-4" />
      <stop
         offset="1"
         style="stop-color:#2b63a0;stop-opacity:1"
         id="stop3756-4" />
    </linearGradient>
    <linearGradient
       gradientTransform="matrix(0,-1.6273539,-1.7508644,0,74.437071,75.161427)"
       gradientUnits="userSpaceOnUse"
       xlink:href="#linearGradient4087-8"
       id="linearGradient3238"
       y2="15.991243"
       x2="20.576487"
       y1="15.991243"
       x1="38.940514" />
    <linearGradient
       id="linearGradient4087-8">
      <stop
         offset="0"
         style="stop-color:#ffffff;stop-opacity:1"
         id="stop4089-4" />
      <stop
         offset="0.51153916"
         style="stop-color:#ffffff;stop-opacity:0.23529412"
         id="stop4091-8" />
      <stop
         offset="0.58522105"
         style="stop-color:#ffffff;stop-opacity:0.15686275"
         id="stop4093-1" />
      <stop
         offset="1"
         style="stop-color:#ffffff;stop-opacity:0.39215687"
         id="stop4095-03" />
    </linearGradient>
    <radialGradient
       gradientTransform="matrix(1,0,0,0.536723,0,16.87306)"
       gradientUnits="userSpaceOnUse"
       xlink:href="#linearGradient8662"
       id="radialGradient3140"
       fy="36.421127"
       fx="24.837126"
       r="15.644737"
       cy="36.421127"
       cx="24.837126" />
    <linearGradient
       id="linearGradient8662">
      <stop
         offset="0"
         style="stop-color:#000000;stop-opacity:1"
         id="stop8664" />
      <stop
         offset="1"
         style="stop-color:#000000;stop-opacity:0"
         id="stop8666" />
    </linearGradient>
    <radialGradient
       gradientTransform="matrix(1,0,0,0.536723,0,16.87306)"
       gradientUnits="userSpaceOnUse"
       xlink:href="#linearGradient8662-7"
       id="radialGradient4195"
       fy="36.421127"
       fx="24.837126"
       r="15.644737"
       cy="36.421127"
       cx="24.837126" />
    <linearGradient
       id="linearGradient8662-7">
      <stop
         offset="0"
         style="stop-color:#000000;stop-opacity:1"
         id="stop8664-0" />
      <stop
         offset="1"
         style="stop-color:#000000;stop-opacity:0"
         id="stop8666-1" />
    </linearGradient>
    <linearGradient
       gradientTransform="matrix(0,-1.6273539,-1.7508644,0,59.437071,75.161427)"
       gradientUnits="userSpaceOnUse"
       xlink:href="#linearGradient4087-8"
       id="linearGradient3269-3"
       y2="15.991243"
       x2="20.576487"
       y1="15.991243"
       x1="38.940514" />
    <linearGradient
       gradientTransform="matrix(-1.4940056,0,0,1.3886149,62.100586,0.0358144)"
       gradientUnits="userSpaceOnUse"
       xlink:href="#linearGradient4330"
       id="linearGradient3234-4-1"
       y2="48.862251"
       x2="23.731871"
       y1="4.4175272"
       x1="23.731871" />
    <linearGradient
       id="linearGradient4330">
      <stop
         offset="0"
         style="stop-color:#f0c1ff;stop-opacity:1"
         id="stop4332" />
      <stop
         offset="0.26238"
         style="stop-color:#c5a3f2;stop-opacity:1"
         id="stop4334" />
      <stop
         offset="0.704952"
         style="stop-color:#7a36b1;stop-opacity:1"
         id="stop4336" />
      <stop
         offset="1"
         style="stop-color:#4c2d81;stop-opacity:1"
         id="stop4338" />
    </linearGradient>
  </defs>
  <metadata
     id="metadata4148">
    <rdf:RDF>
      <cc:Work
         rdf:about="">
        <dc:format>image/svg+xml</dc:format>
        <dc:type
           rdf:resource="http://purl.org/dc/dcmitype/StillImage" />
        <dc:title />
      </cc:Work>
    </rdf:RDF>
  </metadata>
  <path
     d="M 38.695463,53.518037 C 57.665459,40.730214 47.644575,17.1963 26.499999,17.38896 l 0,-10.9068918 -26.0180363,18.7929668 26.0180363,18.699472 0,-10.906891 c 13.637403,-0.528147 21.262444,11.527517 11.51308,20.450421 z"
     id="path3503-2-0-1"
     style="display:block;overflow:visible;visibility:visible;fill:url(#linearGradient3234-4-1);fill-opacity:1;fill-rule:nonzero;stroke:none;stroke-width:0.96392483;stroke-linecap:butt;stroke-linejoin:round;stroke-miterlimit:7;stroke-dasharray:none;stroke-dashoffset:0;stroke-opacity:1;marker:none" />
  <path
     d="M 40.747181,51.500444 C 55.205178,38.368479 46.839675,18.32819 25.499999,18.32819 l 0,-9.9447247 -23.3284733,16.8915697 23.3284733,16.716837 0,-10.027078 c 20.258685,0.201254 19.805943,16.121693 15.247182,19.53565 z"
     id="path3505-1-4-7"
     style="display:block;overflow:visible;visibility:visible;opacity:0.5;fill:none;stroke:url(#linearGradient3269-3);stroke-width:0.96392483;stroke-linecap:butt;stroke-linejoin:miter;stroke-miterlimit:7;stroke-dasharray:none;stroke-dashoffset:0;stroke-opacity:1;marker:none" />
  <path
     d="M 38.695463,53.518037 C 57.665459,40.730214 47.644575,17.1963 26.499999,17.38896 l 0,-10.9068918 -26.0180363,18.7929668 26.0180363,18.699472 0,-10.906891 c 13.637403,-0.528147 21.262444,11.527517 11.51308,20.450421 z"
     id="path3503-2-0-4"
     style="color:#000000;clip-rule:nonzero;display:inline;overflow:visible;visibility:visible;opacity:0.5;isolation:auto;mix-blend-mode:normal;color-interpolation:sRGB;color-interpolation-filters:linearRGB;solid-color:#000000;solid-opacity:1;fill:none;fill-opacity:1;fill-rule:nonzero;stroke:#6326b9;stroke-width:1;stroke-linecap:butt;stroke-linejoin:round;stroke-miterlimit:4;stroke-dasharray:none;stroke-dashoffset:0;stroke-opacity:1;marker:none;color-rendering:auto;image-rendering:auto;shape-rendering:auto;text-rendering:auto;enable-background:accumulate" />
  <g
     transform="matrix(2.6666667,0,0,2.6666667,-2.8740425e-7,-21.333333)"
     id="layer1-6">
    <path
       d="m 40.481863,36.421127 a 15.644737,8.3968948 0 1 1 -31.2894745,0 15.644737,8.3968948 0 1 1 31.2894745,0 z"
       transform="matrix(0.52995454,0,0,-0.65783905,0.487385,48.935435)"
       id="path3501"
       style="display:inline;overflow:visible;visibility:visible;opacity:0.14117647;fill:url(#radialGradient3140);fill-opacity:1;fill-rule:evenodd;stroke:none;stroke-width:1;marker:none" />
    <g
       transform="translate(-2,0)"
       id="g4190">
      <path
         d="m 40.481863,36.421127 a 15.644737,8.3968948 0 1 1 -31.2894745,0 15.644737,8.3968948 0 1 1 31.2894745,0 z"
         transform="matrix(0.52995454,0,0,-0.65783905,0.487385,48.935435)"
         id="path3501-0"
         style="display:inline;overflow:visible;visibility:visible;opacity:0.14117647;fill:url(#radialGradient4195);fill-opacity:1;fill-rule:evenodd;stroke:none;stroke-width:1;marker:none" />
    </g>
  </g>
  <path
     style="display:block;overflow:visible;visibility:visible;fill:url(#linearGradient3234);fill-opacity:1;fill-rule:nonzero;stroke:none;stroke-width:0.96392483;stroke-linecap:butt;stroke-linejoin:round;stroke-miterlimit:7;stroke-dasharray:none;stroke-dashoffset:0;stroke-opacity:1;marker:none"
     id="path3503-2"
     d="M 53.695463,53.518037 C 72.665459,40.730214 62.644575,17.1963 41.499999,17.38896 l 0,-10.9068915 -26.018036,18.7929665 26.018036,18.699472 0,-10.906891 c 13.637403,-0.528147 21.262444,11.527517 11.51308,20.450421 z" />
  <path
     style="display:block;overflow:visible;visibility:visible;opacity:0.52999998;fill:none;stroke:url(#linearGradient3238);stroke-width:0.96392483;stroke-linecap:butt;stroke-linejoin:miter;stroke-miterlimit:7;stroke-dasharray:none;stroke-dashoffset:0;stroke-opacity:1;marker:none"
     id="path3505-1"
     d="M 55.747181,51.500444 C 70.205178,38.368479 61.839675,18.32819 40.499999,18.32819 l 0,-9.9447244 -23.328473,16.8915694 23.328473,16.716837 0,-10.027078 c 20.258685,0.201254 19.805943,16.121693 15.247182,19.53565 z" />
  <path
     style="display:inline;overflow:visible;visibility:visible;fill:#000000;fill-opacity:0;fill-rule:nonzero;stroke:#00537d;stroke-width:1;stroke-linecap:round;stroke-linejoin:round;stroke-miterlimit:4;stroke-dasharray:none;stroke-dashoffset:0;stroke-opacity:1;marker:none;color:#000000;clip-rule:nonzero;opacity:0.5;isolation:auto;mix-blend-mode:normal;color-interpolation:sRGB;color-interpolation-filters:linearRGB;solid-color:#000000;solid-opacity:1;filter-blend-mode:normal;filter-gaussianBlur-deviation:0;color-rendering:auto;image-rendering:auto;shape-rendering:auto;text-rendering:auto;enable-background:accumulate"
     id="path3503-2-0"
     d="M 53.695463,53.518037 C 72.665459,40.730214 62.644575,17.1963 41.499999,17.38896 l 0,-10.9068916 -26.018036,18.7929666 26.018036,18.699472 0,-10.906891 c 13.637403,-0.528147 21.262444,11.527517 11.51308,20.450421 z" />
</svg>

<svg xmlns="http://www.w3.org/2000/svg" xmlns:xlink="http://www.w3.org/1999/xlink" viewBox="0 0 64 64"><defs><linearGradient gradientTransform="matrix(-1.494 0 0 1.3886 77.1 .036)" gradientUnits="userSpaceOnUse" xlink:href="#a" id="j" y2="42.04" x2="23.732" y1="4.418" x1="23.732"/><linearGradient id="a"><stop offset="0" stop-color="#90dbec"/><stop offset=".262" stop-color="#55c1ec"/><stop offset=".705" stop-color="#3689e6"/><stop offset="1" stop-color="#2b63a0"/></linearGradient><linearGradient gradientTransform="matrix(0 -1.62735 -1.75086 0 74.437 75.16)" gradientUnits="userSpaceOnUse" xlink:href="#b" id="k" y2="15.991" x2="20.576" y1="15.991" x1="38.941"/><linearGradient id="b"><stop offset="0" stop-color="#fff"/><stop offset=".512" stop-color="#fff" stop-opacity=".235"/><stop offset=".585" stop-color="#fff" stop-opacity=".157"/><stop offset="1" stop-color="#fff" stop-opacity=".392"/></linearGradient><radialGradient gradientTransform="matrix(1 0 0 .53672 0 16.873)" gradientUnits="userSpaceOnUse" xlink:href="#c" id="h" fy="36.421" fx="24.837" r="15.645" cy="36.421" cx="24.837"/><linearGradient id="c"><stop offset="0"/><stop offset="1" stop-opacity="0"/></linearGradient><radialGradient gradientTransform="matrix(1 0 0 .53672 0 16.873)" gradientUnits="userSpaceOnUse" xlink:href="#d" id="i" fy="36.421" fx="24.837" r="15.645" cy="36.421" cx="24.837"/><linearGradient id="d"><stop offset="0"/><stop offset="1" stop-opacity="0"/></linearGradient><linearGradient gradientTransform="matrix(0 -1.62735 -1.75086 0 59.437 75.16)" gradientUnits="userSpaceOnUse" xlink:href="#b" id="g" y2="15.991" x2="20.576" y1="15.991" x1="38.941"/><linearGradient gradientTransform="matrix(-1.494 0 0 1.3886 62.1 .036)" gradientUnits="userSpaceOnUse" xlink:href="#e" id="f" y2="48.862" x2="23.732" y1="4.418" x1="23.732"/><linearGradient id="e"><stop offset="0" stop-color="#f0c1ff"/><stop offset=".262" stop-color="#c5a3f2"/><stop offset=".705" stop-color="#7a36b1"/><stop offset="1" stop-color="#4c2d81"/></linearGradient></defs><path d="M38.695 53.518c18.97-12.788 8.95-36.322-12.195-36.13V6.483L.482 25.275l26.018 18.7V33.068c13.637-.53 21.262 11.527 11.513 20.45z" display="block" overflow="visible" fill="url(#f)"/><path d="M40.747 51.5C55.205 38.368 46.84 18.328 25.5 18.328V8.383L2.172 25.275 25.5 41.992V31.965c20.26.2 19.806 16.12 15.247 19.535z" display="block" overflow="visible" opacity=".5" fill="none" stroke="url(#g)" stroke-width=".964" stroke-miterlimit="7"/><path d="M38.695 53.518c18.97-12.788 8.95-36.322-12.195-36.13V6.483L.482 25.275l26.018 18.7V33.068c13.637-.53 21.262 11.527 11.513 20.45z" style="isolation:auto;mix-blend-mode:normal" color="#000" overflow="visible" opacity=".5" fill="none" stroke="#6326b9" stroke-linejoin="round"/><path d="M40.482 36.42a15.645 8.397 0 1 1-31.29 0 15.645 8.397 0 1 1 31.29 0z" transform="matrix(1.4132 0 0 -1.75424 1.3 109.16)" overflow="visible" opacity=".141" fill="url(#h)" fill-rule="evenodd"/><path d="M40.482 36.42a15.645 8.397 0 1 1-31.29 0 15.645 8.397 0 1 1 31.29 0z" transform="matrix(1.4132 0 0 -1.75424 -4.034 109.16)" overflow="visible" opacity=".141" fill="url(#i)" fill-rule="evenodd"/><path d="M53.695 53.518c18.97-12.788 8.95-36.322-12.195-36.13V6.483L15.482 25.275l26.018 18.7V33.068c13.637-.53 21.262 11.527 11.513 20.45z" display="block" overflow="visible" fill="url(#j)"/><path d="M55.747 51.5C70.205 38.368 61.84 18.328 40.5 18.328V8.383L17.172 25.275 40.5 41.992V31.965c20.26.2 19.806 16.12 15.247 19.535z" display="block" overflow="visible" opacity=".53" fill="none" stroke="url(#k)" stroke-width=".964" stroke-miterlimit="7"/><path style="isolation:auto;mix-blend-mode:normal;filter-blend-mode:normal;filter-gaussianBlur-deviation:0" d="M53.695 53.518c18.97-12.788 8.95-36.322-12.195-36.13V6.483L15.482 25.275l26.018 18.7V33.068c13.637-.53 21.262 11.527 11.513 20.45z" overflow="visible" stroke="#00537d" stroke-linecap="round" stroke-linejoin="round" color="#000" opacity=".5" fill="none"/></svg>
